svgs/unofficial/mpyram.svg

<?xml version="1.0" encoding="utf-8"?>
<!-- Generator: Adobe Illustrator 16.0.0, SVG Export Plug-In . SVG Version: 6.00 Build 0)  -->
<!DOCTYPE svg PUBLIC "-//W3C//DTD SVG 1.1//EN" "http://www.w3.org/Graphics/SVG/1.1/DTD/svg11.dtd">
<svg version="1.1" id="Layer_1" xmlns="http://www.w3.org/2000/svg" xmlns:xlink="http://www.w3.org/1999/xlink" x="0px" y="0px"
	 width="500px" height="500px" viewBox="0 0 500 500" enable-background="new 0 0 500 500" xml:space="preserve">
<g>
	<path fill="#000000" d="M250,48 205,126 295,126z"/>

	<path fill="#000000" d="M188,155.333 143,233.333 233,233.333z"/>
	<path fill="#000000" d="M250,224.333 205,144.333 295,144.333z"/>
	<path fill="#000000" d="M312,155.333 267,233.333 357,233.333z"/>

	<path fill="#000000" d="M126,262.667 81,340.667 171,340.667z"/>
	<path fill="#000000" d="M188,329.667 143,251.667 233,251.667z"/>
	<path fill="#000000" d="M250,262.667 205,340.667 295,340.667z"/>
	<path fill="#000000" d="M312,329.667 267,251.667 357,251.667z"/>
	<path fill="#000000" d="M374,262.667 329,340.667 419,340.667z"/>

	<path fill="#000000" d="M64,370 19,448 109,448z"/>
	<path fill="#000000" d="M126,437 81,359 171,359z"/>
	<path fill="#000000" d="M188,370 143,448 233,448z"/>
	<path fill="#000000" d="M250,437 205,359 295,359z"/>
	<path fill="#000000" d="M312,370 267,448 357,448z"/>
	<path fill="#000000" d="M374,437 329,359 419,359z"/>
	<path fill="#000000" d="M436,370 391,448 481,448z"/>
</g>
</svg>

<svg enable-background="new 0 0 500 500" height="500" viewBox="0 0 500 500" width="500" xmlns="http://www.w3.org/2000/svg"><path d="m250 48-45 78h90z"/><path d="m188 155.333-45 78h90z"/><path d="m250 224.333-45-80h90z"/><path d="m312 155.333-45 78h90z"/><path d="m126 262.667-45 78h90z"/><path d="m188 329.667-45-78h90z"/><path d="m250 262.667-45 78h90z"/><path d="m312 329.667-45-78h90z"/><path d="m374 262.667-45 78h90z"/><path d="m64 370-45 78h90z"/><path d="m126 437-45-78h90z"/><path d="m188 370-45 78h90z"/><path d="m250 437-45-78h90z"/><path d="m312 370-45 78h90z"/><path d="m374 437-45-78h90z"/><path d="m436 370-45 78h90z"/></svg>
